X:6
T:The One Horned Buck
R:reel
H:learned from Cathal McConnel
O:likely Scottish
D:Double Barrelled, John Skelton & Kieran O'Hare
Z:Paul Stewart Cranford (P.S.C.), <http://www.cranfordpub.com>
Q:333
M:C|
K:D
D2 AD BcdA|D2 BG AFEF|~D2 AD BcdB|AAAG AFEF:|
~B2 cB A2 FA|~B2 cB AFEF|~B2 cB A2 ag|~f2 ef dBAF|
~B2 cB A2 FA|~B2 cB AFEF|~B2 cB Aa{b}ag|~f2 ef dBAF|]
